svgs/sharp-regular/info.svg

<svg xmlns="http://www.w3.org/2000/svg" viewBox="0 0 192 512"><!--! Font Awesome Pro 6.6.0 by @fontawesome - https://fontawesome.com License - https://fontawesome.com/license (Commercial License) Copyright 2024 Fonticons, Inc. --><path d="M128 32l0 80-80 0 0-80 80 0zM16 176l24 0 56 0 24 0 0 24 0 264 48 0 24 0 0 48-24 0L24 512 0 512l0-48 24 0 48 0 0-240-32 0-24 0 0-48z"/></svg>

<svg xmlns="http://www.w3.org/2000/svg" viewBox="0 0 192 512"><!--! Font Awesome Pro 6.4.2 by @fontawesome - https://fontawesome.com License - https://fontawesome.com/license (Commercial License) Copyright 2023 Fonticons, Inc. --><path d="M128 32v80H48V32h80zM16 176H40 96h24v24V464h48 24v48H168 24 0V464H24 72V224H40 16V176z"/></svg>
